X:1
T:Scottish du Regret
C:D'après une composition de Y.F. Perroches, abc file by Bernard Loffet
L:1/8
Q:350
M:4/2
K:C
[A2A,2][AA,]c[e2A,2][dA,]c[B2E,2][BE,]c[B2E,2]E,2|[e2E,2][eE,]f[eE,]d[cE,]B[cA,]d[BA,]c[A2A,2]A,2|[A2A,2][AA,]c[e2A,2][dA,]c[B2E,2][BE,]c[B2E,2]E,2|[e2E,2][eE,]f[eE,]d[cE,]B[A2A,2]A,2A,2A,2| \
[F2D,2][FD,]A[c2D,2][BD,]A[c2A,2][BA,]A[E2A,2]A,2|[e2E,2][eE,]f[eE,]d[cE,]B[cA,]d[BA,]c[A2A,2]A,2|[F2D,2][FD,]A[c2D,2][BD,]A[c2A,2][BA,]A[E2A,2]A,2|[e2E,2][eE,]f[eE,]d[cE,]B[A2A,2]A,2A,2A,2| \
Z:Created with TablEdit http://www.tabledit.com/ by Bernard Loffet
